packages/resourceful-app/src/ui/svg/icons/java.svg

<svg xmlns="http://www.w3.org/2000/svg" viewBox="0 0 455 455"><path d="M0 0v455h455V0H0zm258.536 212.994c3.879 18.452-19.099 34.451-19.099 34.451s6.996-14.059 4.46-22.349c-2.586-8.29-18.519-16.579-18.519-42.16 0-25.515 58.739-47.847 58.739-47.847s-30.173 22.73-37.038 35.098c-10.245 18.518 7.644 24.288 11.457 42.807zm-71.489-45.344c14.689-31.915 52.39-42.807 62.553-61.26C259.829 87.872 256.016 70 256.016 70s17.226 24.221 1.873 49.156c-15.352 24.868-54.395 42.028-54.86 59.32-.647 24.288 16.579 57.446 16.579 57.446s-47.2-36.341-32.561-68.272zm-49.737 83.608c3.813-11.522 49.737-11.522 49.737-11.522s-29.345 5.769-28.698 12.816c.646 6.996 93.837 7.643 128.934-1.94 0 0-19.745 17.11-74.008 19.049-54.28 1.939-79.794-6.931-75.965-18.403zm44.681 62.568c1.293 2.968 33.605 6.798 49.339 4.659 15.75-2.139 25.98-4.277 25.98-4.277l16.115 9.848s-25.051 11.854-60.812 9.715c-35.744-2.072-45.526-8.936-44.68-16.578.845-7.644 15.352-8.025 15.352-8.025s-2.587 1.674-1.294 4.658zm16.512-14.058c-37.369-2.586-54.86-15.932-22.929-23.642 0 0-6.996 2.603-4.459 7.063 2.52 4.476 34.7 6.797 61.259 3.829 19.813-2.205 33.224-5.769 33.224-5.769l12.749 8.936s-47.73 11.788-79.844 9.583zm-86.326 43.851c1.293-11.075 42.16-11.92 45.526-12.367 0 0-29.345 5.106-27.654 11.522 1.691 6.35 55.756 13.595 105.493 11.008 49.803-2.52 80.888-11.008 84.321-14.44 3.365-3.365.779-6.35.779-6.35s7.261 4.659 1.758 10.627c-5.504 5.952-39.193 19.945-115.738 20.011-76.614 0-95.778-8.936-94.485-20.011zm186.828 30.174c-75.766 13.213-142.148-2.586-142.148-2.586s102.126 4.277 135.748-2.47c33.606-6.864 44.68-18.784 44.68-18.784s-2.072 17.49-38.28 23.84zm-7.245-77.192s35.744-23.641 33.157-39.574c-2.52-15.932-28.698-15.932-28.698-15.932s37.054-19.812 43.403 15.286c5.241 28.88-47.862 40.22-47.862 40.22z" fill-rule="evenodd" clip-rule="evenodd"/></svg>

<?xml version="1.0" encoding="iso-8859-1"?>
<svg version="1.1" id="Layer_1" 
	xmlns="http://www.w3.org/2000/svg" 
	xmlns:xlink="http://www.w3.org/1999/xlink" x="0px" y="0px" viewBox="0 0 455 455" style="enable-background:new 0 0 455 455;" xml:space="preserve">
	<path style="fill-rule:evenodd;clip-rule:evenodd;" d="M0,0v455h455V0H0z M258.536,212.994
	c3.879,18.452-19.099,34.451-19.099,34.451s6.996-14.059,4.46-22.349c-2.586-8.29-18.519-16.579-18.519-42.16
	c0-25.515,58.739-47.847,58.739-47.847s-30.173,22.73-37.038,35.098C236.834,188.705,254.723,194.475,258.536,212.994z
	 M187.047,167.65c14.689-31.915,52.39-42.807,62.553-61.26C259.829,87.872,256.016,70,256.016,70s17.226,24.221,1.873,49.156
	c-15.352,24.868-54.395,42.028-54.86,59.32c-0.647,24.288,16.579,57.446,16.579,57.446S172.408,199.581,187.047,167.65z
	 M137.31,251.258c3.813-11.522,49.737-11.522,49.737-11.522s-29.345,5.769-28.698,12.816c0.646,6.996,93.837,7.643,128.934-1.94
	c0,0-19.745,17.11-74.008,19.049C158.995,271.6,133.481,262.73,137.31,251.258z M181.991,313.826
	c1.293,2.968,33.605,6.798,49.339,4.659c15.75-2.139,25.98-4.277,25.98-4.277l16.115,9.848c0,0-25.051,11.854-60.812,9.715
	c-35.744-2.072-45.526-8.936-44.68-16.578c0.845-7.644,15.352-8.025,15.352-8.025S180.698,310.842,181.991,313.826z
	 M198.503,299.768c-37.369-2.586-54.86-15.932-22.929-23.642c0,0-6.996,2.603-4.459,7.063c2.52,4.476,34.7,6.797,61.259,3.829
	c19.813-2.205,33.224-5.769,33.224-5.769l12.749,8.936C278.347,290.185,230.617,301.973,198.503,299.768z M112.177,343.619
	c1.293-11.075,42.16-11.92,45.526-12.367c0,0-29.345,5.106-27.654,11.522c1.691,6.35,55.756,13.595,105.493,11.008
	c49.803-2.52,80.888-11.008,84.321-14.44c3.365-3.365,0.779-6.35,0.779-6.35s7.261,4.659,1.758,10.627
	c-5.504,5.952-39.193,19.945-115.738,20.011C130.048,363.63,110.884,354.694,112.177,343.619z M299.005,373.793
	c-75.766,13.213-142.148-2.586-142.148-2.586s102.126,4.277,135.748-2.47c33.606-6.864,44.68-18.784,44.68-18.784
	S335.213,367.443,299.005,373.793z M291.76,296.601c0,0,35.744-23.641,33.157-39.574c-2.52-15.932-28.698-15.932-28.698-15.932
	s37.054-19.812,43.403,15.286C344.863,285.261,291.76,296.601,291.76,296.601z"/>
</svg>
